lib/flags/iq-iraq.svg

<svg xmlns="http://www.w3.org/2000/svg" fill="none" aria-hidden="true" viewBox="0 0 42 30"><g id="Country=IQ - Iraq, Size=sm (36x24)" filter="url(#filter0_dd_91_27454)"><g clip-path="url(#clip0_91_27454)"><g id="flag"><mask id="mask0_91_27454" width="36" height="24" x="3" y="2" maskUnits="userSpaceOnUse" style="mask-type:alpha"><rect id="mask" width="36" height="24" x="3" y="2" fill="white"/></mask><g mask="url(#mask0_91_27454)"><g id="contents"><path id="background" fill="#F7FCFF" fill-rule="evenodd" d="M3 2V26H39V2H3Z" clip-rule="evenodd"/><mask id="mask1_91_27454" width="36" height="24" x="3" y="2" maskUnits="userSpaceOnUse" style="mask-type:alpha"><path id="background_2" fill="white" fill-rule="evenodd" d="M3 2V26H39V2H3Z" clip-rule="evenodd"/></mask><g mask="url(#mask1_91_27454)"><path id="top" fill="#BF2714" fill-rule="evenodd" d="M3 2V10H39V2H3Z" clip-rule="evenodd"/><path id="bottom" fill="#272727" fill-rule="evenodd" d="M3 18V26H39V18H3Z" clip-rule="evenodd"/><g id="mark"><path id="Combined Shape" fill="#009C4E" fill-rule="evenodd" d="M9.0037 14.8112C10.027 16.1166 8.625 17 8.625 17C8.625 17 9.85068 17 10.3201 16.1256H20.3521V14.1998C20.3521 14.1998 20.1423 13.275 19.249 13.275C18.3557 13.275 18.1544 14.1998 18.1544 14.1998H14.6259L18.0399 11.5209L17.3761 11L13.584 13.9756V14.6065H18.9673V14.2351C18.9673 14.2351 18.9975 14.0201 19.249 14.0201C19.5005 14.0201 19.4393 14.2351 19.4393 14.2351V15.0284H12.6554V13.9437L11.9209 14.2351V15.0284C11.9209 15.0284 11.0213 14.8112 10.4527 14.8112C9.88422 14.8112 9.85068 14.2351 9.85068 14.2351L9.0037 14.8112ZM22.6274 14.8853L23.1775 16.1031H20.9883V11.2144L21.9118 11.4771V14.8853H22.6274ZM32.8249 14.8853L33.375 16.1031H31.1858V11.2144L32.1093 11.4771V14.8853H32.8249ZM30.1142 11.265L29.5438 11.6081V14.8819H28.9627V12.2563L28.0056 12.7468V14.8819H27.3632V13.3995L26.6356 13.8158V14.2182C26.6356 14.2182 25.2361 14.304 25.2361 16.0628H30.1086L30.1142 11.265ZM11.4282 16.9656C11.6042 16.9656 11.7469 16.8537 11.7469 16.7156C11.7469 16.5775 11.6042 16.4655 11.4282 16.4655C11.2522 16.4655 11.1096 16.5775 11.1096 16.7156C11.1096 16.8537 11.2522 16.9656 11.4282 16.9656ZM27.6538 11.6417C27.4064 11.9316 26.6555 11.6417 26.6555 11.6417L28.7847 11.4224C28.5648 11.804 27.6538 11.6417 27.6538 11.6417Z" clip-rule="evenodd"/></g></g></g></g></g></g></g><defs><filter id="filter0_dd_91_27454" width="42" height="30" x="0" y="0" color-interpolation-filters="sRGB" filterUnits="userSpaceOnUse"><feFlood flood-opacity="0" result="BackgroundImageFix"/><feColorMatrix in="SourceAlpha" result="hardAlpha" values="0 0 0 0 0 0 0 0 0 0 0 0 0 0 0 0 0 0 127 0"/><feOffset dy="1"/><feGaussianBlur stdDeviation="1"/><feColorMatrix values="0 0 0 0 0.0627451 0 0 0 0 0.0941176 0 0 0 0 0.156863 0 0 0 0.06 0"/><feBlend in2="BackgroundImageFix" result="effect1_dropShadow_91_27454"/><feColorMatrix in="SourceAlpha" result="hardAlpha" values="0 0 0 0 0 0 0 0 0 0 0 0 0 0 0 0 0 0 127 0"/><feOffset dy="1"/><feGaussianBlur stdDeviation="1.5"/><feColorMatrix values="0 0 0 0 0.0627451 0 0 0 0 0.0941176 0 0 0 0 0.156863 0 0 0 0.1 0"/><feBlend in2="effect1_dropShadow_91_27454" result="effect2_dropShadow_91_27454"/><feBlend in="SourceGraphic" in2="effect2_dropShadow_91_27454" result="shape"/></filter><clipPath id="clip0_91_27454"><rect width="36" height="24" x="3" y="2" fill="white" rx="2"/></clipPath></defs></svg>

<svg xmlns="http://www.w3.org/2000/svg" fill="none" aria-hidden="true" viewBox="0 0 42 30"><g filter="url(#a)"><g clip-path="url(#b)"><mask id="c" width="36" height="24" x="3" y="2" maskUnits="userSpaceOnUse" style="mask-type:alpha"><path fill="#fff" d="M3 2h36v24H3z"/></mask><g mask="url(#c)"><path fill="#F7FCFF" fill-rule="evenodd" d="M3 2v24h36V2H3Z" clip-rule="evenodd"/><mask id="d" width="36" height="24" x="3" y="2" maskUnits="userSpaceOnUse" style="mask-type:alpha"><path fill="#fff" fill-rule="evenodd" d="M3 2v24h36V2H3Z" clip-rule="evenodd"/></mask><g fill-rule="evenodd" clip-rule="evenodd" mask="url(#d)"><path fill="#BF2714" d="M3 2v8h36V2H3Z"/><path fill="#272727" d="M3 18v8h36v-8H3Z"/><path fill="#009C4E" d="M9.004 14.811C10.027 16.117 8.625 17 8.625 17s1.226 0 1.695-.874h10.032V14.2s-.21-.925-1.103-.925-1.095.925-1.095.925h-3.528l3.414-2.68-.664-.52-3.792 2.976v.63h5.383v-.37s.03-.216.282-.216.19.215.19.215v.793h-6.784v-1.084l-.734.291v.793s-.9-.217-1.468-.217c-.569 0-.602-.576-.602-.576l-.847.576Zm13.623.074.55 1.218h-2.189v-4.889l.924.263v3.408h.715Zm10.198 0 .55 1.218h-2.19v-4.889l.924.263v3.408h.716Zm-2.71-3.62-.571.343v3.274h-.581v-2.626l-.957.49v2.136h-.643V13.4l-.727.416v.402s-1.4.086-1.4 1.845h4.873l.005-4.798Zm-18.687 5.7c.176 0 .319-.111.319-.25 0-.137-.143-.25-.319-.25-.176 0-.318.113-.318.25 0 .139.142.25.318.25Zm16.226-5.323c-.248.29-.998 0-.998 0l2.129-.22c-.22.382-1.131.22-1.131.22Z"/></g></g></g></g><defs><clipPath id="b"><rect width="36" height="24" x="3" y="2" fill="#fff" rx="2"/></clipPath><filter id="a" width="42" height="30" x="0" y="0" color-interpolation-filters="sRGB" filterUnits="userSpaceOnUse"><feFlood flood-opacity="0" result="BackgroundImageFix"/><feColorMatrix in="SourceAlpha" result="hardAlpha" values="0 0 0 0 0 0 0 0 0 0 0 0 0 0 0 0 0 0 127 0"/><feOffset dy="1"/><feGaussianBlur stdDeviation="1"/><feColorMatrix values="0 0 0 0 0.0627451 0 0 0 0 0.0941176 0 0 0 0 0.156863 0 0 0 0.06 0"/><feBlend in2="BackgroundImageFix" result="effect1_dropShadow_91_27454"/><feColorMatrix in="SourceAlpha" result="hardAlpha" values="0 0 0 0 0 0 0 0 0 0 0 0 0 0 0 0 0 0 127 0"/><feOffset dy="1"/><feGaussianBlur stdDeviation="1.5"/><feColorMatrix values="0 0 0 0 0.0627451 0 0 0 0 0.0941176 0 0 0 0 0.156863 0 0 0 0.1 0"/><feBlend in2="effect1_dropShadow_91_27454" result="effect2_dropShadow_91_27454"/><feBlend in="SourceGraphic" in2="effect2_dropShadow_91_27454" result="shape"/></filter></defs></svg>
